X:17
T:Bourr?e Tournante des Grandes Poteries
R:Bourree
A:Massif Central
O:France
M:3/8
L:1/8
Q:200
K:C
e/f/|:geg |g/e/ce/f/|geg|g2 d/e/|fdd|d2 c/d/|ecc|1 c2 e/f/:|2 cBA|
|:G2A|G2A|Gcd|e3|dcd|cBA|1 GAG|e2c:|2 Ged|c2|]
<end>
<start>
